X:370
T: ES WAR EIN ARME MUTTER
N: E0209A
O: Europa, Mitteleuropa, Deutschland, Westfalen
R: erzaehlendes Volks - Lied, Mahn -, Moral - Lied, Strafe; Geiz
M: 6/8
L: 1/8
K: E
=D | =G2=DG2A | BBz3
B | =d2BB2A | B3z2
B | =d2BB2A | B=Gz3
A | B2F=G2F | E2z3

